X: 173
T: Pretty Cuckoo   #2
R: air
%S: s:2 b:17(6+7)
B: O'Neill's 1850 #173
Q: "With expression"
Z: 1997 henrik.norbeck@mailbox.swipnet.se
M: 6/8
L: 1/8
K: Bb
F | (B>cd) (dcB) | (G2 F) (D2 F) | (F>GB) (c2 B/c/) | (d2 c) B2 ||
|: (d | G2) (c F2) (B | D>)CB, (C2 F) | (F>GB) (c2 B/c/) |1 (d2 c) B2 :|2 d2 c B2 |]
